flaticon/business/price-tag-6.svg

<svg xmlns="http://www.w3.org/2000/svg" width="32" height="32" viewBox="0 0 24 24">
    <path d="M 23.683594 0.117188 C 23.527344 -0.0390625 23.273438 -0.0390625 23.117188 0.117188 L 21.632812 1.601562 L 12.320312 1.601562 L 0.613281 13.40625 C 0.347656 13.671875 0.199219 14.027344 0.199219 14.402344 C 0.199219 14.78125 0.347656 15.132812 0.613281 15.402344 L 8.800781 23.585938 C 9.074219 23.863281 9.433594 24 9.796875 24 C 10.160156 24 10.523438 23.859375 10.800781 23.582031 L 22.199219 11.875 L 22.199219 2.164062 L 23.683594 0.683594 C 23.839844 0.527344 23.839844 0.273438 23.683594 0.117188 Z M 21.398438 11.550781 L 10.230469 23.023438 C 9.992188 23.261719 9.605469 23.261719 9.363281 23.023438 L 1.179688 14.835938 C 0.941406 14.597656 0.941406 14.207031 1.179688 13.96875 L 12.65625 2.398438 L 20.835938 2.398438 L 18.902344 4.332031 C 18.585938 4.125 18.207031 4 17.800781 4 C 16.699219 4 15.800781 4.898438 15.800781 6 C 15.800781 7.101562 16.699219 8 17.800781 8 C 18.902344 8 19.800781 7.101562 19.800781 6 C 19.800781 5.59375 19.675781 5.214844 19.46875 4.898438 L 21.398438 2.964844 Z M 19 6 C 19 6.660156 18.460938 7.199219 17.800781 7.199219 C 17.136719 7.199219 16.601562 6.660156 16.601562 6 C 16.601562 5.339844 17.136719 4.800781 17.800781 4.800781 C 17.984375 4.800781 18.15625 4.847656 18.3125 4.921875 L 17.515625 5.71875 C 17.359375 5.875 17.359375 6.125 17.515625 6.28125 C 17.59375 6.359375 17.699219 6.398438 17.800781 6.398438 C 17.902344 6.398438 18.003906 6.359375 18.082031 6.28125 L 18.878906 5.484375 C 18.953125 5.644531 19 5.816406 19 6 Z M 19 6"/>
    <path d="M13.621094 15.792969L9.375 20.035156C9.21875 20.191406 9.21875 20.445312 9.375 20.601562 9.453125 20.679688 9.558594 20.71875 9.660156 20.71875 9.761719 20.71875 9.863281 20.679688 9.941406 20.601562L14.183594 16.359375C14.339844 16.203125 14.339844 15.949219 14.183594 15.792969 14.027344 15.636719 13.777344 15.636719 13.621094 15.792969zM15.03125 14.375C14.960938 14.453125 14.917969 14.554688 14.917969 14.660156 14.917969 14.765625 14.960938 14.867188 15.03125 14.945312 15.109375 15.015625 15.210938 15.058594 15.316406 15.058594 15.425781 15.058594 15.527344 15.015625 15.601562 14.945312 15.671875 14.867188 15.714844 14.769531 15.714844 14.660156 15.714844 14.550781 15.671875 14.449219 15.601562 14.375 15.457031 14.226562 15.179688 14.226562 15.03125 14.375zM11.640625 10.984375C11.796875 10.828125 11.796875 10.574219 11.640625 10.417969 11.484375 10.261719 11.230469 10.261719 11.074219 10.417969L6.832031 14.660156C6.675781 14.816406 6.675781 15.070312 6.832031 15.226562 6.910156 15.304688 7.011719 15.34375 7.113281 15.34375 7.214844 15.34375 7.320312 15.304688 7.398438 15.226562zM10.226562 15.792969C10.304688 15.871094 10.40625 15.910156 10.507812 15.910156 10.609375 15.910156 10.714844 15.871094 10.792969 15.792969L13.621094 12.964844C13.777344 12.808594 13.777344 12.554688 13.621094 12.398438 13.464844 12.242188 13.210938 12.242188 13.054688 12.398438L10.226562 15.226562C10.070312 15.382812 10.070312 15.636719 10.226562 15.792969zM7.960938 17.488281L7.398438 18.054688C7.242188 18.210938 7.242188 18.464844 7.398438 18.621094 7.476562 18.699219 7.578125 18.738281 7.679688 18.738281 7.78125 18.738281 7.882812 18.699219 7.960938 18.621094L8.527344 18.054688C8.683594 17.898438 8.683594 17.644531 8.527344 17.488281 8.371094 17.332031 8.117188 17.332031 7.960938 17.488281zM8.246094 9.851562C8.089844 9.695312 7.835938 9.695312 7.679688 9.851562L3.4375 14.09375C3.28125 14.25 3.28125 14.503906 3.4375 14.660156 3.515625 14.738281 3.617188 14.777344 3.71875 14.777344 3.824219 14.777344 3.925781 14.738281 4.003906 14.660156L8.246094 10.417969C8.402344 10.261719 8.402344 10.007812 8.246094 9.851562zM9.375 9.121094C9.484375 9.121094 9.582031 9.078125 9.660156 9.003906 9.730469 8.929688 9.777344 8.824219 9.777344 8.71875 9.777344 8.613281 9.730469 8.507812 9.660156 8.4375 9.511719 8.289062 9.238281 8.289062 9.097656 8.4375 9.019531 8.511719 8.976562 8.613281 8.976562 8.71875 8.976562 8.824219 9.019531 8.929688 9.089844 9.003906 9.167969 9.074219 9.273438 9.121094 9.375 9.121094zM5.699219 15.792969C5.625 15.863281 5.582031 15.96875 5.582031 16.074219 5.582031 16.179688 5.625 16.285156 5.699219 16.355469 5.777344 16.433594 5.875 16.476562 5.984375 16.476562 6.085938 16.476562 6.191406 16.433594 6.269531 16.355469 6.339844 16.28125 6.382812 16.179688 6.382812 16.074219 6.382812 15.96875 6.339844 15.867188 6.265625 15.792969 6.117188 15.644531 5.847656 15.644531 5.699219 15.792969zM9.660156 16.925781C9.734375 16.847656 9.777344 16.746094 9.777344 16.640625 9.777344 16.535156 9.734375 16.433594 9.660156 16.355469 9.511719 16.207031 9.238281 16.207031 9.089844 16.355469 9.019531 16.433594 8.976562 16.535156 8.976562 16.640625 8.976562 16.746094 9.019531 16.847656 9.089844 16.925781 9.167969 16.996094 9.273438 17.039062 9.375 17.039062 9.484375 17.039062 9.582031 16.996094 9.660156 16.925781zM9.660156 16.925781"/>
</svg>

<svg xmlns="http://www.w3.org/2000/svg" width="32" height="32" viewBox="0 0 24 24">
    <path d="M23.684.117a.4.4 0 0 0-.567 0l-1.484 1.485H12.32L.613 13.406a1.413 1.413 0 0 0 0 1.996l8.188 8.184c.273.277.633.414.996.414s.726-.14 1.004-.418l11.398-11.707v-9.71L23.684.683a.4.4 0 0 0 0-.567zm-2.286 11.434L10.23 23.023a.615.615 0 0 1-.867 0L1.18 14.836a.615.615 0 0 1 0-.867l11.476-11.57h8.18l-1.934 1.933A2.01 2.01 0 0 0 17.801 4c-1.102 0-2 .898-2 2 0 1.102.898 2 2 2 1.101 0 2-.898 2-2a2.01 2.01 0 0 0-.332-1.102l1.93-1.933zM19 6a1.2 1.2 0 1 1-1.2-1.2c.184 0 .356.048.512.122l-.796.797a.396.396 0 0 0 0 .562.405.405 0 0 0 .285.117c.101 0 .203-.039.281-.117l.797-.797c.074.16.121.332.121.516zm0 0"/>
    <path d="M13.621 15.793l-4.246 4.242a.4.4 0 0 0 .566.567l4.243-4.243a.4.4 0 0 0 0-.566.396.396 0 0 0-.563 0zm0 0M15.031 14.375a.43.43 0 0 0-.113.285.43.43 0 0 0 .113.285.415.415 0 0 0 .57 0 .415.415 0 0 0 0-.57.42.42 0 0 0-.57 0zm0 0M11.64 10.984a.4.4 0 0 0-.566-.566L6.832 14.66a.4.4 0 0 0 .566.567zm0 0M10.227 15.793c.078.078.18.117.28.117.102 0 .208-.039.286-.117l2.828-2.828a.4.4 0 0 0-.566-.567l-2.828 2.829a.4.4 0 0 0 0 .566zm0 0M7.96 17.488l-.562.567a.4.4 0 0 0 .282.683c.101 0 .203-.039.28-.117l.567-.566a.4.4 0 0 0-.566-.567zm0 0M8.246 9.852a.4.4 0 0 0-.566 0l-4.242 4.242a.4.4 0 0 0 .566.566l4.242-4.242a.4.4 0 0 0 0-.566zm0 0M9.375 9.121c.11 0 .207-.043.285-.117a.426.426 0 0 0 .117-.285.41.41 0 0 0-.117-.281c-.148-.149-.422-.149-.562 0a.387.387 0 0 0-.121.28c0 .106.043.212.113.286.078.07.183.117.285.117zm0 0M5.7 15.793a.393.393 0 0 0-.118.281c0 .106.043.211.117.281a.396.396 0 0 0 .57 0 .4.4 0 0 0-.004-.563.416.416 0 0 0-.566.001zm0 0M9.66 16.926a.416.416 0 0 0 .117-.285.416.416 0 0 0-.117-.286.42.42 0 0 0-.57 0 .43.43 0 0 0-.113.286.43.43 0 0 0 .113.285c.078.07.183.113.285.113.11 0 .207-.043.285-.113zm0 0"/>
</svg>
